app/img/svg/quotes.svg

<svg xmlns="http://www.w3.org/2000/svg" width="159" height="128"><defs><clipPath id="cp1"><path d="M1 0h157v128H1z"/></clipPath></defs><style></style><g id="Page 1" clip-path="url(#cp1)"><path id="Path 1" d="M70.93 14.55L62.43.42C57.54 3.41 1 24.84 1 79.66 1 94.12 1.67 128 38.8 128c22.37 0 27.88-20.56 27.88-27.17 0-43.95-42.76-28.35-42.76-28.35 0-36.14 39.61-53.69 47.01-57.93zm87.41 0L149.84.42c-4.88 2.99-61.43 24.42-61.43 79.24 0 14.46.67 48.34 37.8 48.34 22.37 0 27.88-20.56 27.88-27.17 0-43.95-42.76-28.35-42.76-28.35 0-36.14 39.61-53.69 47.01-57.93z"/></g></svg>

<svg xmlns="http://www.w3.org/2000/svg" viewBox="0 0 159 128" width="159" height="128">
	<defs>
		<clipPath clipPathUnits="userSpaceOnUse" id="cp1">
			<path d="M1 0L158 0L158 128L1 128Z" />
		</clipPath>
	</defs>
	<style>
		tspan { white-space:pre }
		.shp0 { fill: #000000 } 
	</style>
	<g id="Page 1" clip-path="url(#cp1)">
		<path id="Path 1" class="shp0" d="M70.93 14.55L62.43 0.42C57.54 3.41 1 24.84 1 79.66C1 94.12 1.67 128 38.8 128C61.17 128 66.68 107.44 66.68 100.83C66.68 56.88 23.92 72.48 23.92 72.48C23.92 36.34 63.53 18.79 70.93 14.55ZM158.34 14.55L149.84 0.42C144.96 3.41 88.41 24.84 88.41 79.66C88.41 94.12 89.08 128 126.21 128C148.58 128 154.09 107.44 154.09 100.83C154.09 56.88 111.33 72.48 111.33 72.48C111.33 36.34 150.94 18.79 158.34 14.55Z" />
	</g>
</svg>
